X:30
T:Old Oxford, The
T:Old Molly Oxford,aka
M:4/4
L:1/4
Q:1/2=105
S:D.Wright, Extraordinary Collection, London 1713
H:strain 2, bar 6 note 5 printed as dotted quaver-here corrected
Z:Pete Stewart, 2004 <www.hornpipemusic.co.uk>
K:Dmin
AB/c/dD | FA^C2 | D/E/F/G/Ad | ^cde^c |
d/e/f/g/ae | fe/d/^cB/^c/ | dDF/G/A | E2"^crot in MS"D2 :|
 |: FcAc | Fcc>B | AdGd | ^Fdd3/2c/4B/4 |
cgeg | Bgg/4f/4g3/2 | aAB/c/d | d>cd2 :|

